public/img/old-svg/google-pay.svg

<svg width="44" height="19" viewBox="0 0 44 19" fill="none" xmlns="http://www.w3.org/2000/svg">
<path fill-rule="evenodd" clip-rule="evenodd" d="M43.7811 6.02913L38.417 18.5974H36.7917L38.7959 14.2233L35.2739 6.0843H37.0086L39.5558 12.3408H39.6085L42.1031 6.0843H43.783V6.02893L43.7811 6.02913ZM20.9123 9.57259V14.7217H19.2871V1.9873H23.5143C24.5438 1.9873 25.5185 2.37493 26.2784 3.09478C27.0363 3.75926 27.4153 4.75576 27.4153 5.80765C27.4153 6.85974 27.0363 7.80088 26.2784 8.5206C25.5185 9.2403 24.5985 9.62791 23.5143 9.62791L20.9123 9.57259ZM20.9123 3.53755V7.96699H23.6218C24.2176 7.96699 24.8153 7.74572 25.1943 7.30251C26.0616 6.47192 26.0616 5.08801 25.247 4.25741L25.1943 4.20203C24.7606 3.75905 24.2176 3.48239 23.6218 3.53755H20.9123ZM31.1542 5.75228C32.3477 5.75228 33.2678 6.0843 33.9729 6.74878C34.6781 7.41326 35.0024 8.29914 35.0024 9.40645V14.7217H33.4846V13.5038H33.4318C32.7813 14.5002 31.8593 14.9985 30.7752 14.9985C29.8551 14.9985 29.0425 14.7217 28.392 14.168C27.7943 13.6142 27.4153 12.8392 27.4153 12.0087C27.4153 11.1226 27.7415 10.4029 28.392 9.84918C29.0425 9.29581 29.9626 9.07416 31.0467 9.07416C32.0215 9.07416 32.7813 9.2403 33.3771 9.62791V9.2403C33.3771 8.68656 33.1603 8.133 32.7266 7.80088C32.293 7.41326 31.7519 7.19176 31.1542 7.19176C30.2341 7.19176 29.5289 7.57938 29.0425 8.35465L27.6321 7.46884C28.4995 6.30622 29.6383 5.75249 31.1561 5.75249L31.1542 5.75228ZM29.0953 12.064C29.0953 12.5069 29.3121 12.8945 29.6383 13.1162C30.0173 13.3928 30.4509 13.5591 30.8846 13.5591C31.5351 13.5591 32.1836 13.2821 32.6719 12.7839C33.215 12.2854 33.4846 11.6764 33.4846 11.0122C32.9982 10.6246 32.293 10.4029 31.371 10.4029C30.7205 10.4029 30.1794 10.5691 29.7457 10.9014C29.312 11.1781 29.0953 11.5657 29.0953 12.0642V12.064Z" fill="#5F6368"/>
<path fill-rule="evenodd" clip-rule="evenodd" d="M14.4658 8.4655C14.4658 7.9672 14.4111 7.46885 14.3564 6.9707H7.58398V9.79446H11.4302C11.2681 10.6803 10.7798 11.5108 10.0218 12.0093V13.8363H12.3522C13.7059 12.563 14.4658 10.6803 14.4658 8.46569V8.4655Z" fill="#4285F4"/>
<path fill-rule="evenodd" clip-rule="evenodd" d="M7.58304 15.6079C9.53451 15.6079 11.1597 14.9433 12.3533 13.836L10.0229 12.009C9.37237 12.452 8.55975 12.7287 7.58304 12.7287C5.74096 12.7287 4.1157 11.4553 3.57265 9.68359H1.18945V11.5661C2.43574 14.0577 4.87363 15.6079 7.58304 15.6079Z" fill="#34A853"/>
<path fill-rule="evenodd" clip-rule="evenodd" d="M3.57129 9.68322C3.24702 8.79738 3.24702 7.80067 3.57129 6.85953V4.97705H1.1881C0.158653 7.02565 0.158653 9.46195 1.1881 11.5659L3.57129 9.68341V9.68322Z" fill="#FBBC04"/>
<path fill-rule="evenodd" clip-rule="evenodd" d="M7.58104 3.86928C8.61049 3.86928 9.58718 4.25689 10.3451 4.97674L12.406 2.87276C11.105 1.65455 9.37035 0.93491 7.63572 0.990285C4.92633 0.990285 2.43377 2.54053 1.24023 5.03211L3.62537 6.91459C4.11373 5.14286 5.73897 3.86928 7.58104 3.86928Z" fill="#EA4335"/>
</svg>

<svg width="44" height="19" viewBox="0 0 44 19" fill="none" xmlns="http://www.w3.org/2000/svg"><path fill-rule="evenodd" clip-rule="evenodd" d="M43.781 6.03l-5.364 12.567h-1.625l2.004-4.374-3.522-8.139h1.735l2.547 6.257h.053l2.494-6.257h1.68V6.03h-.002zM20.912 9.572v5.149h-1.625V1.987h4.227a3.99 3.99 0 012.764 1.108c.758.664 1.137 1.66 1.137 2.713 0 1.052-.379 1.993-1.137 2.713-.76.72-1.68 1.107-2.764 1.107l-2.602-.055zm0-6.035v4.429h2.71c.596 0 1.193-.221 1.572-.664a2.154 2.154 0 00.053-3.046l-.053-.055c-.433-.443-.976-.72-1.572-.664h-2.71zm10.242 2.214c1.194 0 2.114.332 2.819.997.705.664 1.03 1.55 1.03 2.657v5.316h-1.518v-1.218h-.053c-.65.996-1.573 1.495-2.657 1.495-.92 0-1.732-.277-2.383-.831-.598-.554-.977-1.329-.977-2.16 0-.885.326-1.605.977-2.159.65-.553 1.57-.775 2.655-.775.975 0 1.734.166 2.33.554V9.24c0-.553-.217-1.107-.65-1.44a2.332 2.332 0 00-1.573-.608c-.92 0-1.625.387-2.111 1.163l-1.41-.886c.867-1.163 2.005-1.717 3.523-1.717h-.002zm-2.059 6.312c0 .443.217.83.543 1.052.38.277.813.443 1.247.443.65 0 1.299-.277 1.787-.775.543-.499.813-1.108.813-1.772-.487-.387-1.192-.61-2.114-.61-.65 0-1.192.167-1.625.5-.434.276-.65.664-.65 1.162z" fill="#5F6368"/><path fill-rule="evenodd" clip-rule="evenodd" d="M14.466 8.466c0-.499-.055-.997-.11-1.495H7.584v2.823h3.846c-.162.886-.65 1.717-1.408 2.215v1.827h2.33c1.354-1.273 2.114-3.156 2.114-5.37z" fill="#4285F4"/><path fill-rule="evenodd" clip-rule="evenodd" d="M7.583 15.608c1.952 0 3.577-.665 4.77-1.772l-2.33-1.827c-.65.443-1.463.72-2.44.72-1.842 0-3.467-1.274-4.01-3.045H1.189v1.882c1.247 2.492 3.685 4.042 6.394 4.042z" fill="#34A853"/><path fill-rule="evenodd" clip-rule="evenodd" d="M3.571 9.683c-.324-.886-.324-1.882 0-2.823V4.977H1.188c-1.03 2.049-1.03 4.485 0 6.589l2.383-1.883z" fill="#FBBC04"/><path fill-rule="evenodd" clip-rule="evenodd" d="M7.581 3.87c1.03 0 2.006.387 2.764 1.107l2.061-2.104C11.105 1.655 9.37.935 7.636.99A7.09 7.09 0 001.24 5.032l2.385 1.883c.489-1.772 2.114-3.046 3.956-3.046z" fill="#EA4335"/></svg>
